X:1
T:Bert Ferguson
C: \2511980 Samuel Ian Rothmar Burns
R: jig
M: 6/8
K: A
B|"A"cBc "E7"EAB|"A"cBc e2E|"Bm"F2A BAB|"Bm7"cec "E7"BAB|
 "A"cBc EAB|cBc "A7"e2E|"D"FAA "Bm"BAF|1"E7"EAA "A"A2:|2"E7"EAA "A"Ace||
|:"F#m"faf fec|"E"efg "A"a2e|"F#m"f2f "C#m"fec|"Bm"fBB "E7"Bce|
 "F#m"faf fec|"A"edc "A7/C#"cBA|"D"FAA "Bm"BAF|1"E7"EAA "A"Ace:|2"E7"EAA "A"A2|]
